assets/img/braze_icons/ruler.svg

<svg fill="none" height="24" viewBox="0 0 24 24" width="24" xmlns="http://www.w3.org/2000/svg"><path clip-rule="evenodd" d="m17.4634 1.28045c-.3012-.09789-.6257-.09789-.927 0-.2326.07558-.4012.20113-.5123.29542-.0958.08134-.1963.18192-.2805.26615l-13.90145 13.90148c-.08426.0842-.1849.1847-.26628.2806-.09429.1111-.21984.2797-.29542.5123-.09789.3013-.09789.6258 0 .927.07558.2327.20113.4013.29542.5124.08136.0958.18197.1963.26622.2805l3.9014 3.9014c.0842.0843.18475.1849.2806.2663.11108.0943.27967.2198.51231.2954.30126.0979.62579.0979.92705 0 .23263-.0756.40123-.2011.51231-.2954.09584-.0814.19639-.182.28058-.2663l13.90136-13.90135c.0843-.08418.1849-.18476.2663-.28059.0943-.11108.2198-.27968.2954-.51231.0979-.30126.0979-.62579 0-.92705-.0756-.23264-.2011-.40123-.2954-.51231-.0814-.09584-.182-.19638-.2663-.28057l-3.9014-3.9014c-.0841-.08425-.1847-.18489-.2805-.26625-.1111-.09429-.2797-.21984-.5124-.29542zm-2.6705 4.51244c.3905-.39052 1.0237-.39052 1.4142 0l1.5 1.5c.3905.39053.3905 1.02369 0 1.41422-.3905.39052-1.0237.39052-1.4142 0l-1.5-1.5c-.3905-.39053-.3905-1.02369 0-1.41422zm-1.5858 3c-.3905-.39052-1.0237-.39052-1.4142 0-.3905.39053-.3905 1.02369 0 1.41421l1.5 1.5c.3905.3905 1.0237.3905 1.4142 0s.3905-1.0237 0-1.4142zm-4.41421 3.00001c.39053-.3905 1.02369-.3905 1.41421 0l1.5 1.5c.3905.3905.3905 1.0237 0 1.4142s-1.0237.3905-1.4142 0l-1.50001-1.5c-.39052-.3905-.39052-1.0237 0-1.4142zm-1.58578 3c-.39053-.3905-1.02369-.3905-1.41422 0-.39052.3905-.39052 1.0237 0 1.4142l1.5 1.5c.39053.3905 1.02369.3905 1.41422 0 .39052-.3905.39052-1.0237 0-1.4142z" fill="#801ed7" fill-rule="evenodd"/></svg>

<svg width="24" height="24" viewBox="0 0 24 24" fill="none" xmlns="http://www.w3.org/2000/svg">
<path fill-rule="evenodd" clip-rule="evenodd" d="M17.4634 1.28045C17.1622 1.18256 16.8377 1.18256 16.5364 1.28045C16.3038 1.35603 16.1352 1.48158 16.0241 1.57587C15.9283 1.65721 15.8278 1.75779 15.7436 1.84202L1.84215 15.7435C1.75789 15.8277 1.65725 15.9282 1.57587 16.0241C1.48158 16.1352 1.35603 16.3038 1.28045 16.5364C1.18256 16.8377 1.18256 17.1622 1.28045 17.4634C1.35603 17.6961 1.48158 17.8647 1.57587 17.9758C1.65723 18.0716 1.75784 18.1721 1.84209 18.2563L5.74349 22.1577C5.82769 22.242 5.92824 22.3426 6.02409 22.424C6.13517 22.5183 6.30376 22.6438 6.5364 22.7194C6.83766 22.8173 7.16219 22.8173 7.46345 22.7194C7.69608 22.6438 7.86468 22.5183 7.97576 22.424C8.0716 22.3426 8.17215 22.242 8.25634 22.1577L22.1577 8.25635C22.242 8.17217 22.3426 8.07159 22.424 7.97576C22.5183 7.86468 22.6438 7.69608 22.7194 7.46345C22.8173 7.16219 22.8173 6.83766 22.7194 6.5364C22.6438 6.30376 22.5183 6.13517 22.424 6.02409C22.3426 5.92825 22.242 5.82771 22.1577 5.74352L18.2563 1.84212C18.1722 1.75787 18.0716 1.65723 17.9758 1.57587C17.8647 1.48158 17.6961 1.35603 17.4634 1.28045ZM14.7929 5.79289C15.1834 5.40237 15.8166 5.40237 16.2071 5.79289L17.7071 7.29289C18.0976 7.68342 18.0976 8.31658 17.7071 8.70711C17.3166 9.09763 16.6834 9.09763 16.2929 8.70711L14.7929 7.20711C14.4024 6.81658 14.4024 6.18342 14.7929 5.79289ZM13.2071 8.79289C12.8166 8.40237 12.1834 8.40237 11.7929 8.79289C11.4024 9.18342 11.4024 9.81658 11.7929 10.2071L13.2929 11.7071C13.6834 12.0976 14.3166 12.0976 14.7071 11.7071C15.0976 11.3166 15.0976 10.6834 14.7071 10.2929L13.2071 8.79289ZM8.79289 11.7929C9.18342 11.4024 9.81658 11.4024 10.2071 11.7929L11.7071 13.2929C12.0976 13.6834 12.0976 14.3166 11.7071 14.7071C11.3166 15.0976 10.6834 15.0976 10.2929 14.7071L8.79289 13.2071C8.40237 12.8166 8.40237 12.1834 8.79289 11.7929ZM7.20711 14.7929C6.81658 14.4024 6.18342 14.4024 5.79289 14.7929C5.40237 15.1834 5.40237 15.8166 5.79289 16.2071L7.29289 17.7071C7.68342 18.0976 8.31658 18.0976 8.70711 17.7071C9.09763 17.3166 9.09763 16.6834 8.70711 16.2929L7.20711 14.7929Z" fill="#801ED7"/>
</svg>
